X:1
T:E Major Daniel Read, 1801 (Revised 1807)
T:Issac Watts, 1719 (Psalm 72)  88. 88. (L. M.). 
T:Dominion No copyright.  Transcribed from The Columbian Harmonist, 1807.
%%score [ 1 2 3 4 ]
L:1/8
M:4/4
K:E
V:1 treble nm="Tr." snm="Tr."
V:2 treble nm="C." snm="C."
V:3 treble-8 nm="T." snm="T."
V:4 bass nm="B." snm="B."
V:1
 B4 | G4 B4 | B4 (B>c d2) | e4 d4 | e8 | e4 B2 B2 | B6 c2 | B4 (B2 A2) | G8 | z8 | z8 | z4 B4 | %12
w: |||||||||||His|
 e2 e2 e2 eg | f2 f2 f2 ge | d2 d2 e2 c2 | B2 B2 B2 z2 | z4 z2 GF | G2 E2 E2 B2 | e2 e2 c2 c2 | %19
w: king- dom stretch from *|shore to shore, Till *|moons shall wax and|wane no more,|His *|king- dom stretch from|shore to shore, from|
 fe dc B4- | B2 B2 e2 g>e | c2 f>d B2 ed | e8 |] %23
w: shore * to * shore~||||
V:2
 E4 | E4 D4 | E4 (E2 F2) | G4 G4 | G8 | G4 E2 E2 | E6 E2 | E4 D4 | E8 | z8 | z8 | z8 | z8 | %13
w: 1.~Je-|sus shall|reign where- *|e'er the|sun|Does his suc-|ces- sive|jour- neys|run.|||||
 z4 z2 E2 | F2 F2 F2 EF | G2 G2 G2 E2 | B2 G2 E2 B,2 | E2 E2 E2 GF | G2 E2 E2 [CG]2 | %19
w: His|king- dom stretch from *|shore to shore, Till|moons shall wax and|wane no more, His *|king- dom stretch from|
 [B,F]2 [B,F]2 [B,F]4- | [B,F]2 G2 G2 B2 | B2 BA G2 GF | G8 |] %23
w: shore to shore~|* Till moons shall|wax and * wane no *|more.|
V:3
 E4 | B4 (B>c d2) | e4 (B2 G2) | (E2 c2) (B2 A2) | G8 | B4 B2 B2 | e6 A2 | G4 F4 | E8 | z8 | %10
w: ||||||||||
 z4 B4 | B2 B2 e2 ef | g2 g2 g2 ge | c2 c2 cd ec | B2 B2 B2 z2 | z4 z2 GF | G2 E2 EF GA | %17
w: His|king- dom stretch from *|shore to shore, Till *|moons shall wax * and *|wane no more.|His *|king- dom stretch * from *|
 B2 B2 B3 B | c2 cB e2 ec | f2 f2 f4- | f2 ec B2 BG | G2 GF G2 E2 | E8 |] %23
w: shore to shore, His|king- dom * stretch from *|shore to shore~||||
V:4
 E,4 | E,4 B,,4 | E,4 (G,2 B,2) | (B,2 A,2) (G,2 F,2) | E,8 | E,4 E,2 E,2 | E,6 A,2 | B,4 B,,4 | %8
w: ||||||||
 E,8 | z4 E,4 | E,2 E,2 E,2 E,F, | G,2 G,2 G,2 G,F, | E,2 C,2 C,D, E,C, | F,2 F,2 F,2 z2 | %14
w: |His|king- dom stretch from *|shore to shore, Till *|moons shall wax * and *|wane no more.|
 z4 z2 E,2 | G,2 E,2 E,F, G,A, | B,2 B,,2 E,4- | E,6 E,2 | C,2 C,2 C,2 E,2 | B,,2 B,,2 B,,4- | %20
w: His|king- dom stretch * from *|shore to shore~|* His|king- dom stretch from|shore to shore~|
 B,,2 E,>F, G,2 E,2 | E,F, G,A, B,2 B,,2 | E,8 |] %23
w: |||

